svgs/feedback.svg

<?xml version="1.0" encoding="utf-8"?>
<!-- Generator: Adobe Illustrator 23.1.1, SVG Export Plug-In . SVG Version: 6.00 Build 0)  -->
<svg version="1.1" xmlns="http://www.w3.org/2000/svg" xmlns:xlink="http://www.w3.org/1999/xlink" x="0px" y="0px"
	 viewBox="0 0 16 16" style="enable-background:new 0 0 16 16;" xml:space="preserve">
<style type="text/css">
	.st0{display:none;}
	.st1{display:inline;}
	.st2{fill:#404040;}
	.st3{fill:#FFFFFF;}
	.st4{fill:none;}
	.st5{opacity:0.3;fill:none;}
	.st6{fill:#FF0000;}
	.st7{fill-rule:evenodd;clip-rule:evenodd;fill:#404040;}
	.st8{fill-rule:evenodd;clip-rule:evenodd;fill:#FFFFFF;}
	.st9{fill-rule:evenodd;clip-rule:evenodd;fill:#2867B2;}
	.st10{fill:#EE1376;}
	.st11{fill:#1DA1F2;}
	.st12{fill:#1877F2;}
	.st13{display:inline;fill:none;}
	.st14{display:inline;fill:#404040;}
	.st15{display:inline;opacity:0.3;fill:none;}
	.st16{display:inline;fill-rule:evenodd;clip-rule:evenodd;fill:#404040;}
	.st17{fill:none;stroke:#404040;stroke-width:2;stroke-linecap:round;}
</style>
<g id="Outter_Container" class="st0">
</g>
<g id="NEW" class="st0">
</g>
<g id="NEW_NO_Container">
	<g id="icon-feedback_2_">
		<g>
			<path class="st2" d="M16,5.0002c0-0.5527-0.4478-1-1-1h-3v-3c0-0.5527-0.4478-1-1-1H1c-0.5522,0-1,0.4473-1,1v7.1426
				c0,0.5527,0.4478,1,1,1h3v3c0,0.5527,0.4478,1,1,1h6.7289l2.5634,2.5638c0.0923,0.0925,0.2031,0.1658,0.3257,0.2166
				c0.1222,0.0505,0.2518,0.0771,0.382,0.0771s0.2598-0.0266,0.382-0.0771c0.2446-0.1013,0.4395-0.2961,0.5408-0.5408
				C15.9734,15.2601,16,15.1304,16,15.0002V5.0002z M12.525,11.2198c-0.1221-0.0505-0.2518-0.077-0.3819-0.077H6V6.0002h8v6.5856
				l-1.1492-1.1494C12.7584,11.3439,12.6477,11.2706,12.525,11.2198z M2,7.1428V2.0002h8v2H5c-0.5522,0-1,0.4473-1,1v2.1426H2z"/>
		</g>
	</g>
</g>
</svg>

<svg id="NEW_NO_Container" data-name="NEW NO Container" xmlns="http://www.w3.org/2000/svg" viewBox="0 0 16 16"><defs><style>.cls-1{fill:#404040;}</style></defs><title>icon-feedback</title><g id="icon-feedback"><path class="cls-1" d="M16,5a1,1,0,0,0-1-1H12V1a1,1,0,0,0-1-1H1A1,1,0,0,0,0,1V8.1428a1,1,0,0,0,1,1H4v3a1,1,0,0,0,1,1h6.7289l2.5634,2.5638A1.0013,1.0013,0,0,0,16,15Zm-3.475,6.22a1,1,0,0,0-.3819-.077H6V6h8v6.5857l-1.1492-1.1495A1,1,0,0,0,12.525,11.22ZM2,7.1428V2h8V4H5A1,1,0,0,0,4,5V7.1428Z" transform="translate(0 -0.0002)"/></g></svg>
